app/images/icon-types/5252ce4ce4cfcd16f55cfa3f.svg

<svg xmlns="http://www.w3.org/2000/svg" viewBox="282.8 -367.5 255.1 337.8" enable-background="new 282.8 -367.5 255.1 337.8"><path fill="#019ded" d="m520.2-31.6h-217.9c-8.9 0-16.1-7.2-16.1-16.1v-300.8c0-8.9 7.2-16.1 16.1-16.1h151.9l82 81.9v235c.1 8.9-7.1 16.1-16 16.1"/><path fill="#287ea6" d="m536.3-237.6l-78.8-46.8-3.2-80.2 82 81.9z"/><path fill="#a3e9f8" d="m454-364.6v72.8c0 5.2 4.2 9.5 9.5 9.5h72.8l-82.3-82.3"/><path fill="#fff" d="m482.6-122c5.5 0 10.1-4.6 10.1-10.1v-98.4c0-5.5-4.6-10.1-10.1-10.1h-143.6c-5.5 0-10.1 4.6-10.1 10.1v98.4c0 5.5 4.6 10.1 10.1 10.1h143.6m-128.5-4.8l56.4-39.6 56.4 39.6h-112.8m119.5.1l-61.2-44.2 61.2-45.5v89.7m-1.9-110.8l-61.6 43.8-60.8-43.8h122.4m-124.4 21.8l61.2 44.6-61.2 44.4v-89"/></svg>

<?xml version="1.0" encoding="utf-8"?>
<!-- Generator: Adobe Illustrator 17.1.0, SVG Export Plug-In . SVG Version: 6.00 Build 0)  -->
<!DOCTYPE svg PUBLIC "-//W3C//DTD SVG 1.1//EN" "http://www.w3.org/Graphics/SVG/1.1/DTD/svg11.dtd">
<svg version="1.1" xmlns="http://www.w3.org/2000/svg" xmlns:xlink="http://www.w3.org/1999/xlink" x="0px" y="0px"
	 viewBox="282.8 -367.5 255.1 337.8" enable-background="new 282.8 -367.5 255.1 337.8" xml:space="preserve">
<g id="Calque_1">
</g>
<g id="Calque_2">
</g>
<g id="Calque_7">
	<path fill="#019DED" d="M520.2-31.6H302.3c-8.9,0-16.1-7.2-16.1-16.1v-300.8c0-8.9,7.2-16.1,16.1-16.1h151.9l82,81.9v235
		C536.3-38.8,529.1-31.6,520.2-31.6z"/>
	<polygon fill="#287EA6" points="536.3,-237.6 457.5,-284.4 454.3,-364.6 536.3,-282.7 	"/>
	<path fill="#A3E9F8" d="M454-364.6v72.8c0,5.2,4.2,9.5,9.5,9.5h72.8L454-364.6z"/>
	<path fill="#FFFFFF" d="M482.6-122c5.5,0,10.1-4.6,10.1-10.1v-98.4c0-5.5-4.6-10.1-10.1-10.1H339c-5.5,0-10.1,4.6-10.1,10.1v98.4
		c0,5.5,4.6,10.1,10.1,10.1H482.6z M354.1-126.8l56.4-39.6l56.4,39.6H354.1z M473.6-126.7l-61.2-44.2l61.2-45.5V-126.7z
		 M471.7-237.5l-61.6,43.8l-60.8-43.8H471.7z M347.3-215.7l61.2,44.6l-61.2,44.4V-215.7z"/>
</g>
<g id="Calque_3">
</g>
<g id="Calque_4">
</g>
<g id="Calque_5">
</g>
<g id="Calque_6">
</g>
<g id="Calque_8">
</g>
</svg>
